X:484
T: MIR IST EIN ROTH GOLDFINGERLEIN
N: E0434
O: Europa, Mitteleuropa, Deutschland
R: Liebes - Lied
M: 3/4
L: 1/8
K: F
F2 | A4B2 | c2f2d2 | A4B2 | c4
c2 | f4e2 | d2c2g2 | f2ecd2 | c4
c2 | f4c2 | c2A2c2 | B2AFG2 | F4
A2 | c4AF | G2F2c2 | B2AFG2 | F4

